X:1
T:Title
%%score { ( 1 4 ) | ( 2 3 ) }
L:1/8
M:4/4
K:A
V:1 treble nm="Grand Piano"
V:4 treble 
V:2 bass 
V:3 bass 
V:1
 z4 z2[Q:1/4=100] [CE]F | [CA]2 [CA]>[CA] [CA]2 [Ec][EA] | FF F>G FE z[K:bass] A,, | %3
 E2[K:treble] E>E F2 [CA]>[DB] | [Cc][DEB][CEA][EAc] .[EGB]2 [CA]2 | [Ge]2 [Fe]2 [Ee]2 fe | %6
 c2 [Ec]2 [FB]2 [FA]2 | F2 A2 E2 FG |[M:3/4] [A,CA]6 |[M:1/4] [CE]F | %10
[M:4/4] [CA]2 [CA]>[CA] [CA]2 [Ec][EA] | FF F>G FE z[K:bass] A,, | E2[K:treble] E>E F2 [CA]>[DB] | %13
 [Cc][DEB][CEA][EAc] .[EGB]2 [CA]2 | [Ge]2 [Fe]2 [Ee]2 fe | c2 [Ec]2 [FB]2 [FA]2 | F2 A2 E2 FG | %17
[M:3/4] [A,CA]6 |] %18
V:2
 z4 z2 z D | A,2 A,>A, A,E,A,,C, | [D,D][D,D] [F,D]>[F,D] [A,C][A,C] .A,2 | %3
 [E,G,B,]2 [C,A,]>[C,A,] [D,A,D]2 [A,,A,]>[A,,E,] | [A,,E,]A,,A,A, z[K:treble] D z c | %5
 [E,B,]2 [F,A,]2 [G,B,]2 [E,D]2 | [A,CA]2 [C,A,]2 [D,A,]2 [D,A,]2 | %7
 [D,A,D]2 [F,A,D]2 [E,A,C]2 [E,D]-[E,B,D] |[M:3/4] A,,6 |[M:1/4] z D |[M:4/4] A,2 A,>A, A,E,A,,C, | %11
 [D,D][D,D] [F,D]>[F,D] [A,C][A,C] .A,2 | [E,G,B,]2 [C,A,]>[C,A,] [D,A,D]2 [A,,A,]>[A,,E,] | %13
 [A,,E,]A,,A,A, z[K:treble] D z c | [E,B,]2 [F,A,]2 [G,B,]2 [E,D]2 | %15
 [A,CA]2 [C,A,]2 [D,A,]2 [D,A,]2 | [D,A,D]2 [F,A,D]2 [E,A,C]2 [E,D]-[E,B,D] |[M:3/4] A,,6 |] %18
V:3
 z4 z2 A,2 | x8 | x8 | x8 | z4 E,2[K:treble] A,2 | x8 | x8 | z4 z2 .A,2 |[M:3/4] x6 |[M:1/4] A,2 | %10
[M:4/4] x8 | x8 | x8 | z4 E,2[K:treble] A,2 | x8 | x8 | z4 z2 .A,2 |[M:3/4] x6 |] %18
V:4
 x8 | x8 | z4 z2 C2[K:bass] | x2[K:treble] x6 | x8 | z4 z2 G2 | x8 | x8 |[M:3/4] x6 |[M:1/4] x2 | %10
[M:4/4] x8 | z4 z2 C2[K:bass] | x2[K:treble] x6 | x8 | z4 z2 G2 | x8 | x8 |[M:3/4] x6 |] %18

